webroot/img/new-desgin/social-media/bi_instagram.svg

<svg width="81" height="80" viewBox="0 0 81 80" fill="none" xmlns="http://www.w3.org/2000/svg">
<g id="bi:instagram">
<path id="Vector" d="M40.5654 10.002C32.4242 10.002 31.4004 10.0395 28.2017 10.182C25.0029 10.332 22.8242 10.8345 20.9154 11.577C18.9133 12.33 17.0998 13.5113 15.6017 15.0382C14.0757 16.5371 12.8946 18.3504 12.1404 20.352C11.3979 22.257 10.8917 24.4395 10.7454 27.627C10.6029 30.8332 10.5654 31.8532 10.5654 40.0057C10.5654 48.1507 10.6029 49.1707 10.7454 52.3695C10.8954 55.5645 11.3979 57.7432 12.1404 59.652C12.9092 61.6245 13.9329 63.297 15.6017 64.9657C17.2667 66.6345 18.9392 67.662 20.9117 68.427C22.8242 69.1695 24.9992 69.6757 28.1942 69.822C31.3967 69.9645 32.4167 70.002 40.5654 70.002C48.7142 70.002 49.7304 69.9645 52.9329 69.822C56.1242 69.672 58.3104 69.1695 60.2192 68.427C62.22 67.6735 64.0323 66.4922 65.5292 64.9657C67.1979 63.297 68.2217 61.6245 68.9904 59.652C69.7292 57.7432 70.2354 55.5645 70.3854 52.3695C70.5279 49.1707 70.5654 48.1507 70.5654 40.002C70.5654 31.8532 70.5279 30.8332 70.3854 27.6307C70.2354 24.4395 69.7292 22.257 68.9904 20.352C68.2364 18.3503 67.0552 16.537 65.5292 15.0382C64.0316 13.5107 62.2179 12.3294 60.2154 11.577C58.3029 10.8345 56.1204 10.3282 52.9292 10.182C49.7267 10.0395 48.7104 10.002 40.5579 10.002H40.5692H40.5654ZM37.8767 15.4095H40.5692C48.5792 15.4095 49.5279 15.4357 52.6892 15.582C55.6142 15.7132 57.2042 16.2045 58.2617 16.6132C59.6604 17.157 60.6617 17.8095 61.7117 18.8595C62.7617 19.9095 63.4104 20.907 63.9542 22.3095C64.3667 23.3632 64.8542 24.9532 64.9854 27.8782C65.1317 31.0395 65.1617 31.9882 65.1617 39.9945C65.1617 48.0007 65.1317 48.9532 64.9854 52.1145C64.8542 55.0395 64.3629 56.6257 63.9542 57.6832C63.4732 58.9858 62.7055 60.1636 61.7079 61.1295C60.6579 62.1795 59.6604 62.8282 58.2579 63.372C57.2079 63.7845 55.6179 64.272 52.6892 64.407C49.5279 64.5495 48.5792 64.5832 40.5692 64.5832C32.5592 64.5832 31.6067 64.5495 28.4454 64.407C25.5204 64.272 23.9342 63.7845 22.8767 63.372C21.5736 62.8917 20.3947 62.1254 19.4267 61.1295C18.4282 60.1621 17.6594 58.9832 17.1767 57.6795C16.7679 56.6257 16.2767 55.0357 16.1454 52.1107C16.0029 48.9495 15.9729 48.0007 15.9729 39.987C15.9729 31.977 16.0029 31.032 16.1454 27.8707C16.2804 24.9457 16.7679 23.3557 17.1804 22.2982C17.7242 20.8995 18.3767 19.8982 19.4267 18.8482C20.4767 17.7982 21.4742 17.1495 22.8767 16.6057C23.9342 16.1932 25.5204 15.7057 28.4454 15.5707C31.2129 15.4432 32.2854 15.4057 37.8767 15.402V15.4095ZM56.5817 20.3895C56.1089 20.3895 55.6408 20.4826 55.204 20.6635C54.7672 20.8444 54.3704 21.1096 54.0361 21.4439C53.7018 21.7782 53.4366 22.175 53.2557 22.6118C53.0748 23.0486 52.9817 23.5167 52.9817 23.9895C52.9817 24.4622 53.0748 24.9303 53.2557 25.3671C53.4366 25.8039 53.7018 26.2007 54.0361 26.535C54.3704 26.8693 54.7672 27.1345 55.204 27.3154C55.6408 27.4963 56.1089 27.5895 56.5817 27.5895C57.5365 27.5895 58.4521 27.2102 59.1273 26.535C59.8024 25.8599 60.1817 24.9442 60.1817 23.9895C60.1817 23.0347 59.8024 22.119 59.1273 21.4439C58.4521 20.7687 57.5365 20.3895 56.5817 20.3895ZM40.5692 24.597C38.5257 24.5651 36.4963 24.94 34.5991 25.7C32.7019 26.4599 30.9749 27.5897 29.5185 29.0235C28.0621 30.4574 26.9055 32.1666 26.1161 34.0517C25.3266 35.9368 24.9201 37.9601 24.9201 40.0038C24.9201 42.0476 25.3266 44.0709 26.1161 45.956C26.9055 47.8411 28.0621 49.5503 29.5185 50.9841C30.9749 52.4179 32.7019 53.5477 34.5991 54.3077C36.4963 55.0676 38.5257 55.4426 40.5692 55.4107C44.6137 55.3476 48.4712 53.6966 51.3091 50.8141C54.147 47.9317 55.7376 44.0489 55.7376 40.0038C55.7376 35.9588 54.147 32.076 51.3091 29.1935C48.4712 26.311 44.6137 24.6601 40.5692 24.597ZM40.5692 30.0007C43.2217 30.0007 45.7655 31.0544 47.6411 32.93C49.5167 34.8056 50.5704 37.3495 50.5704 40.002C50.5704 42.6545 49.5167 45.1983 47.6411 47.0739C45.7655 48.9495 43.2217 50.0032 40.5692 50.0032C37.9167 50.0032 35.3728 48.9495 33.4972 47.0739C31.6216 45.1983 30.5679 42.6545 30.5679 40.002C30.5679 37.3495 31.6216 34.8056 33.4972 32.93C35.3728 31.0544 37.9167 30.0007 40.5692 30.0007Z" fill="url(#paint0_linear_421_9350)"/>
</g>
<defs>
<linearGradient id="paint0_linear_421_9350" x1="16.1852" y1="15.4827" x2="70.1932" y2="83.355" gradientUnits="userSpaceOnUse">
<stop stop-color="#007BC4"/>
<stop offset="1" stop-color="#0B4C97"/>
</linearGradient>
</defs>
</svg>

<svg xmlns="http://www.w3.org/2000/svg" width="81" height="80" fill="none"><path fill="url(#a)" d="M40.565 10.002c-8.14 0-9.165.037-12.363.18-3.2.15-5.378.652-7.287 1.395a14.688 14.688 0 0 0-5.313 3.461 14.727 14.727 0 0 0-3.462 5.314c-.742 1.905-1.248 4.087-1.395 7.275-.142 3.206-.18 4.226-.18 12.379 0 8.145.038 9.165.18 12.364.15 3.195.653 5.373 1.395 7.282.77 1.972 1.793 3.645 3.462 5.314 1.665 1.669 3.337 2.696 5.31 3.461 1.912.742 4.087 1.249 7.282 1.395 3.203.142 4.223.18 12.371.18 8.15 0 9.165-.037 12.368-.18 3.191-.15 5.377-.653 7.286-1.395 2.001-.754 3.813-1.935 5.31-3.461 1.669-1.669 2.693-3.341 3.461-5.314.74-1.909 1.245-4.087 1.395-7.282.143-3.2.18-4.22.18-12.368 0-8.149-.037-9.169-.18-12.371-.15-3.192-.656-5.374-1.395-7.279a14.722 14.722 0 0 0-3.46-5.314 14.665 14.665 0 0 0-5.315-3.461c-1.912-.742-4.095-1.249-7.286-1.395-3.202-.143-4.219-.18-12.371-.18h.011-.004Zm-2.688 5.407h2.692c8.01 0 8.959.027 12.12.173 2.925.131 4.515.622 5.573 1.031 1.398.544 2.4 1.197 3.45 2.247 1.05 1.05 1.698 2.047 2.242 3.45.413 1.053.9 2.643 1.031 5.568.147 3.162.177 4.11.177 12.117 0 8.006-.03 8.958-.177 12.12-.13 2.924-.622 4.51-1.03 5.568a9.264 9.264 0 0 1-2.247 3.447c-1.05 1.05-2.048 1.698-3.45 2.242-1.05.413-2.64.9-5.569 1.035-3.161.142-4.11.176-12.12.176-8.01 0-8.962-.034-12.124-.176-2.925-.135-4.51-.622-5.568-1.035a9.293 9.293 0 0 1-3.45-2.242 9.3 9.3 0 0 1-2.25-3.45c-.41-1.054-.9-2.644-1.032-5.57-.142-3.16-.172-4.11-.172-12.123 0-8.01.03-8.955.172-12.116.135-2.925.623-4.515 1.035-5.573.544-1.398 1.197-2.4 2.247-3.45 1.05-1.05 2.047-1.698 3.45-2.242 1.057-.413 2.643-.9 5.568-1.035 2.768-.128 3.84-.165 9.432-.169v.008Zm18.705 4.98a3.6 3.6 0 1 0 0 7.201 3.6 3.6 0 0 0 0-7.2Zm-16.013 4.208a15.408 15.408 0 1 0-.481 30.812 15.408 15.408 0 0 0 .481-30.812Zm0 5.404a10.001 10.001 0 1 1 0 20.002 10.001 10.001 0 0 1 0-20.002Z"/><defs><linearGradient id="a" x1="16.185" x2="70.193" y1="15.483" y2="83.355" gradientUnits="userSpaceOnUse"><stop stop-color="#007BC4"/><stop offset="1" stop-color="#0B4C97"/></linearGradient></defs></svg>
